X: 41633
T: Up The Pond
R: jig
M: 6/8
K: Dmajor
|:a2g fdf|ecA cBA|Bcd ece|fdd d2A|
a2g fdf|ecA cBA|Bcd ece|1 fdd d2A:|2 fdd d3||
|:A2d def|g3 f3|e2d cBA|e2d c2B|
A2d def|g3 f3|e2d cBc|e2d d3:|
|:ABA F2G|A2d d2d|e2d cBA|e2d c2B|
ABA F2G|A2d d2d|e2d cBc|1 e2d d3:|2 e2d d2A||

